src/assets/icons/app/filter.svg

<svg width="24" height="24" xmlns="http://www.w3.org/2000/svg"><g fill="#523178" fill-rule="nonzero"><path d="M19 7h-4c-.6 0-1 .4-1 1s.4 1 1 1h4c.6 0 1-.4 1-1s-.4-1-1-1zM9 5c-1.3 0-2.4.9-2.8 2H5c-.6 0-1 .4-1 1s.4 1 1 1h1.2c.4 1.1 1.5 2 2.8 2 1.7 0 3-1.3 3-3s-1.3-3-3-3zM5 17h4c.6 0 1-.4 1-1s-.4-1-1-1H5c-.6 0-1 .4-1 1s.4 1 1 1zM19 15h-1.2c-.4-1.2-1.5-2-2.8-2-1.7 0-3 1.3-3 3s1.3 3 3 3c1.3 0 2.4-.9 2.8-2H19c.6 0 1-.4 1-1s-.4-1-1-1z"/></g></svg>

<?xml version="1.0" encoding="UTF-8"?>
<svg width="24px" height="24px" viewBox="0 0 24 24" version="1.1" xmlns="http://www.w3.org/2000/svg" xmlns:xlink="http://www.w3.org/1999/xlink">
    <title>filter</title>
    <g id="filter" stroke="none" stroke-width="1" fill="none" fill-rule="evenodd">
        <path d="M19,7 L15,7 C14.4,7 14,7.4 14,8 C14,8.6 14.4,9 15,9 L19,9 C19.6,9 20,8.6 20,8 C20,7.4 19.6,7 19,7 Z" id="Path" fill="#523178" fill-rule="nonzero"></path>
        <path d="M9,5 C7.7,5 6.6,5.9 6.2,7 C6.1,7 6.1,7 6,7 L5,7 C4.4,7 4,7.4 4,8 C4,8.6 4.4,9 5,9 L6,9 C6.1,9 6.1,9 6.2,9 C6.6,10.1 7.7,11 9,11 C10.7,11 12,9.7 12,8 C12,6.3 10.7,5 9,5 Z" id="Path" fill="#523178" fill-rule="nonzero"></path>
        <path d="M5,17 L9,17 C9.6,17 10,16.6 10,16 C10,15.4 9.6,15 9,15 L5,15 C4.4,15 4,15.4 4,16 C4,16.6 4.4,17 5,17 Z" id="Path" fill="#523178" fill-rule="nonzero"></path>
        <path d="M19,15 L18,15 C17.9,15 17.9,15 17.8,15 C17.4,13.8 16.3,13 15,13 C13.3,13 12,14.3 12,16 C12,17.7 13.3,19 15,19 C16.3,19 17.4,18.1 17.8,17 C17.9,17 17.9,17 18,17 L19,17 C19.6,17 20,16.6 20,16 C20,15.4 19.6,15 19,15 Z" id="Path" fill="#523178" fill-rule="nonzero"></path>
    </g>
</svg>
